X: 111101
Q: "Strathspey."
M: C
L: 1/8
K: G
|: ud |\
(3(Bcd) (G<d) B2 (B<d) | (3(Bcd) (G<d) B<A A<d |\
(3(Bcd) (G<d) B2 (B<d) | ve>vfug>ue d<B B :|\
ud |\
ve>vfug>ue d<B vb>ua |
g>ed>B c<A Ad |\
e>fg>e d<B g>a | b/a/g/f/ g>e d<B B<d |\
e>fg>e d>b a<b | g>ed>B B<A A<B |
ud |\
ve>uG d<G B2 (B<d) | e>G d<G B<A A<d |\
e>G d<G B2 (B<d) | e>fg>e d<B B :|


